public/img/next/rocket.svg

<svg width="289" height="299" viewBox="0 0 289 299" fill="none" xmlns="http://www.w3.org/2000/svg">
<path d="M285.216 11.6797C284.047 8.17578 281.124 5.25586 277.616 4.08789C258.909 0 244.295 0 229.68 0C169.468 0 133.223 32.7031 106.333 74.75H44.9511C35.5977 75.334 24.4906 81.7578 19.8139 90.5176L-8.83083 148.332C-9.41541 150.084 -10 152.42 -10 154.172C-10 162.348 -4.15414 168.188 4.03006 168.188H64.2424L51.3815 181.619C44.3665 188.043 43.7819 200.307 51.3815 207.898L81.1954 237.682C87.6258 244.105 99.9021 245.273 107.502 237.682L120.363 224.834V284.984C120.947 293.16 126.793 299 134.977 299C136.731 299 139.069 298.416 140.823 297.832L198.697 269.217C207.466 264.545 213.896 253.449 213.896 244.105V182.787C256.571 155.924 288.723 119.717 288.723 59.5664C289.308 44.9668 289.308 30.3672 285.216 11.6797ZM214.481 98.1094C201.035 98.1094 191.097 88.1816 191.097 74.75C191.097 61.9023 201.035 51.3906 214.481 51.3906C227.342 51.3906 237.864 61.9023 237.864 74.75C237.864 88.1816 227.342 98.1094 214.481 98.1094Z" fill="url(#paint0_radial_501_475)" fill-opacity="0.5"/>
<defs>
<radialGradient id="paint0_radial_501_475" cx="0" cy="0" r="1" gradientUnits="userSpaceOnUse" gradientTransform="translate(-65.1434 -25.9611) rotate(37.1201) scale(554.789 2085.1)">
<stop stop-color="#CA72B7"/>
<stop offset="0.430152" stop-color="#914680"/>
<stop offset="1" stop-color="#3F2660"/>
</radialGradient>
</defs>
</svg>

<svg width="289" height="299" fill="none" xmlns="http://www.w3.org/2000/svg"><path d="M285.216 11.68c-1.169-3.504-4.092-6.424-7.6-7.592C258.909 0 244.295 0 229.68 0c-60.212 0-96.457 32.703-123.347 74.75H44.951c-9.353.584-20.46 7.008-25.137 15.768l-28.645 57.814c-.584 1.752-1.169 4.088-1.169 5.84 0 8.176 5.846 14.016 14.03 14.016h60.212l-12.86 13.431c-7.015 6.424-7.6 18.688 0 26.279l29.813 29.784c6.43 6.423 18.707 7.591 26.307 0l12.861-12.848v60.15c.584 8.176 6.43 14.016 14.614 14.016 1.754 0 4.092-.584 5.846-1.168l57.874-28.615c8.769-4.672 15.199-15.768 15.199-25.112v-61.318c42.675-26.863 74.827-63.07 74.827-123.22.585-14.6.585-29.2-3.507-47.887zm-70.735 86.43c-13.446 0-23.384-9.928-23.384-23.36 0-12.848 9.938-23.36 23.384-23.36 12.861 0 23.383 10.512 23.383 23.36 0 13.432-10.522 23.36-23.383 23.36z" fill="url(#a)" fill-opacity=".5"/><defs><radialGradient id="a" cx="0" cy="0" r="1" gradientUnits="userSpaceOnUse" gradientTransform="rotate(37.12 6.088 -109.99) scale(554.789 2085.1)"><stop stop-color="#CA72B7"/><stop offset=".43" stop-color="#914680"/><stop offset="1" stop-color="#3F2660"/></radialGradient></defs></svg>
